!!!COM: Robert Schumann
!!!CNT: Deutsch
!!!TXO: Deutsch
!!!OTL: Sehnsucht nach der Waldgegend
!!!LYR: Kerner
!!!OPR: Zwo2lf Gedichte
!!!OPS: Op. 35
!!!ONM: No. 5
!!!ENC: Ben Fuhrman
!!!YOR: Schumann Lieder - Max Friedlaender, ed.,
!!!YOR: New York: C. F. Peters, Vol. 2
!!!ODT: 1840/
!!NB: Vocal melody and text only encoded.
!!NB: First instance of melodic material only encoded.
**kern	**silbe
*clefG2	*
*k[b-e-a-d-]	*
*M6/4	*
!!created: 06/28/06 9:00
!!proofed and posted: 06/28/06 9:00
!!edit time:30 minutes
=1	=1
4r	.
{4.f	{Wa2r'
8f	ich
[2en	nie
8en]	|
8c	aus
=2	=2
[2f	euch
8f]	|
8a-	ge-
2cc	-gan-
4g	-gen,
=3	=3
2a-	Wa2l-
4a-	-der,
(2a-	hehr
8ee-)	|
8dd-	und
=4	=4
(4.cc	wun-
8a-	|
8b-)	|
8g	-der-
2a-}	-bar!}
{8a-	{Hiel-
8a-	-tet
=5	=5
4.dd-	lie-
8a-	-bend
8a-	mich
8b-	um-
4cc	-fan-
4a-	-gen
8a-	doch
8a-	so
=6	=6
4.ff	lan-
8cc	-ge,
8cc	lan-
8ddn	-ge
2.ee-}	Jahr'!}
=7	=7
2.r	.
4r	.
4r	.
{8b-	{Wo
8b-	in
=8	=8
4.b-	eu-
8g	-ren
8e-	Da2m-
8a-	-mer-
4g	-un-
4f	-gen
8.b-	Vo-
16dn	-gel
=9	=9
4.e-	sang
8f	und
8g	Sil-
8a-	-ber-
2f}	-quell,}
{8b-	{ist
8b-	auch
=10	=10
4.ee-	man-
8a-	-ches
8g	Lied
8g	ent-
4cc	-sprun-
4f	-gen
8.en	mei-
16en	-nem
=11	=11
4.f	Bu-
8g	-sen
8a-	frisch
8cc	und
2b-}	hell.}
{8b-	{Eu-
8b-	-er
=12	=12
4.b-	Wo-
8dn	-gen,
8e-	eu-
8a-	-er
4g	Hal-
4f	-len,
8.b-	eu-
16b-	-er
=13	=13
4.b-	Sa2u
8dn	-seln
(12e-	nim-
12b-)	|
12a-	-mer
(4g	mu2d',
4f)}	|}
{8b-	{eu-
8b-	-re
=14	=14
4.ee-	Me-
8g	-lo-
8a-	-di-
8a-	-en
4dd	al-
4f	-le
8g	weck-
8g	-ten
=15	=15
8.f	in
16g	der
4.a-	Brust
(qa-	das
8cc)	|
2f}	Lied.}
{8b-	{Hier
8b-	in
=16	=16
4.a-	die-
8g	-sen
8.f#	wei-
16ddn	-ten
4ddn	Trif-
4g	-ten
8g	ist
8g	mir
=17	=17
4.g-	al-
8f	-les
8.en	o2d'
16cc	und
2cc}	stumm,}
{8f	{und
8gn	ich
=18	=18
4.a-	schau'
8f	in
8f	blau-
8g	-en
4a-	Lu2f-
4f	-ten
8f	mich
8g	nach
=19	=19
8a-	Wol-
8g	-ken-
4.f	-bil-
8f	-dern
2.g}	um}
=20	=20
4r	.
{4.f	{Wenn
8f	ihr's
[2en	in
8en]	|
8c	den
=21	=21
[2f	Bu-
8f]	|
8a-	-sen
4cc	zwin-
2g	-et,
=22	=22
2a-	regt
4a-	sich
(2a-	sel-
8ee-)	|
8dd-	-ten
=23	=23
(4.cc	nur
8a-	|
8b-)	|
8g	das
2a-}	Lied:}
{8a-	{wie
8a-	der
=24	=24
4.dd-	Vo-
8a-	-gel
8a-	halb
8b-	nur
4cc	sin-
4a-	-get,
8a-	den
8a-	von
=25	=25
4.dd-	Baum
8a-	und
8a-	Blatt
8b-	man
[2.cc	schied.
=26	=26
2.cc]}	|}
2.r	.
==	==
*-	*-
